X: 45
T: Riff City
C: by John Goodin
%D:2001
R: reel
B: PC3 p.175
S: Fiddle Hell Online 2021-10-13 Portland Collection Jam handout
Z: 2022 John Chambers <jc:trillian.mit.edu>
M: C|
L: 1/8
K: Gm
%%continueall
"^A"|: "Gm"G2GF GFDC | DFDC D4 |\
[1,3 "C"C2B,G, C2B,G, | CG,B,2 G,4 :|\
[2,4 "C"c2BG FDF2 | "Gm"G8 :|
"^B"|: "Gm"d2"F/G"c2- c2"Gm"d2 | BcBF G4 |\
[1,3  G,B,CD FGAB | "Dm"AGF2 D4 :|\
[2,4 "C"c2BG FDF2 | "Gm"G8 :|


